X: 1
T: Stalwarts
C: David A. Kaynor March 2021
%D:2021
S: https://natunelist.net/stalwarts/ 2010-6-10
M: 4/4
L: 1/8
K: A
|: fg | "A"a2ga"D"f2df | "A"e2ce "E"dBGE |\
"D"DFED "A"CEAc | "Bm"Bdfe "E"e2fg |
"A"a2ga "D"sf2df | "A"e2ce "E"dBGE |\
"D"DFED "A"CEAc | "E"BAGA "A"A2 :|
|: GA | "E"B2BG EFED | "A"CEAB c2Bc |\
"D"defg afbas | "Bm"gefe "E"e2fg |
"A"abag "D"f2ed | "A"c2ec "E"dBGE |\
"D"DFED "A"CEAc | "E"BAGA "A"A2 :|
